X: 24
T:G-Dur-Schleuniger #1
M:3/4
L:1/8
C:trad
R:Schleuniger
S:j.m. schmalnauer: "tanz musik", bhlau, wien 1996 (compa bd. 5) 
K:G
|:(DG3/2z/2(B/2A/2BG)|A4  FG|FA3/2z/2(c/2B/2cD)
|B4  (Bc)|Bd3/2z/2(g/2f/2gd)|e4  dB|cABGAF|G4  :|
|:FG|(DG)(BGBG)|B2 (AFAF)|(FA)(cDcD)|c2 BGBG|
BdgBgB|g2 fdfd|fdfgaf|g4  :|
